X:1
T:Title
%%score ( 1 2 ) { 3 | 4 }
L:1/8
M:4/4
K:G
V:1 treble nm="Bright Piano"
V:2 treble 
V:3 bass nm="Bright Piano"
V:4 bass 
V:1
 z4 z2[Q:1/4=94] [B,D][B,D] | [B,D]2 [CE][B,D] [DG]2 [DG][DG] | [FA]2 [DG][FA] [GB]2 [GB][GB] | %3
 [Gd]2 [GB][DA] GA[GB][Gc] | [FA]6 D[CD] | [B,D]2 [CE][B,D] [DG]2 [DG][DA] | %6
 [GB]2 [FA][=FB] [Ec]3 [Ge] | [Gd]2 [DG][GB] [FA]2 [DG][DF] |[M:3/4] [DG]6 |[M:1/4] [DG][DG] | %10
[M:4/4] [FA][FA][FA][GB] [Ac]<[Ac] [GB][FA] | G[DG][DG][DA] [GB]<[GB] [GB][Gc] | %12
 [Gd][Gd][Ge][Gd] [Gd][GB] [GB]>G | [FA]4 [Fd]3 [Fc] | [GB][Gd] [DG]>[DA] [GB][DG] [DG]>D | %15
 [CE][EG] [Ec]>[Ec] [Ec][DB][GB][Gc] | [Gd][Gd][DG][GB] [EA][EA][DG][DF] |[M:3/4] [DG]6 |] %18
V:2
 x8 | x8 | x8 | z4 D2 z2 | x8 | x8 | x8 | x8 |[M:3/4] x6 |[M:1/4] x2 |[M:4/4] x8 | x8 | x8 | x8 | %14
 x8 | x8 | x8 |[M:3/4] x6 |] %18
V:3
 z4 z2 G,G, | G,2 G,G, B,2 B,B, | D2 B,D D2 DD | B,2 DC B,CDE | D6[K:bass] F,F, | %5
 G,2 G,G, B,2 B,[K:treble]C | D2 CG, G,3 C | B,2 B,D C2 B,A, |[M:3/4] B,6 |[M:1/4] B,B, | %10
[M:4/4][K:treble] DDDD D<D DC | B,B,B,C D<[K:treble]D DD | B,B,C[K:bass]B, B,D D>B, | D4 A,3 D | %14
 DB, B,>C D[K:bass]B, G,>G, | G,G, G,>G, G,G,G,A, | B,B,B,[K:treble]D CCB,A, |[M:3/4] B,6 |] %18
V:4
 z8 | z4 G,2 G,G, | D,2 D,D, G,2 G,G, | G,2 G,G, G,2 G,C, | D,6 D,D, | z4 G,2 G,G, | %6
 G,2 .G,2 C,3 C, | D,2 D,D, D,2 D,D, |[M:3/4] [G,,G,]6 |[M:1/4] G,G, |[M:4/4] D,D,D,D, D,<D, D,D, | %11
 G,G,G,G, G,<G, G,G, | G,G,G,G, G,G, G,>G, | D,4 D,3 D, | G,G, G,>G, G,G, B,,>B,, | %15
 C,C, C,>C, z2 z G, | G,G,G,G, C,C,D,D, |[M:3/4] [G,,G,]6 |] %18

